Newaita/actions/32/download-later.svg

<?xml version="1.0" encoding="UTF-8"?>
<svg xmlns="http://www.w3.org/2000/svg" xmlns:xlink="http://www.w3.org/1999/xlink" width="32pt" height="32pt" viewBox="0 0 32 32" version="1.1">
<defs>
<filter id="alpha" filterUnits="objectBoundingBox" x="0%" y="0%" width="100%" height="100%">
  <feColorMatrix type="matrix" in="SourceGraphic" values="0 0 0 0 1 0 0 0 0 1 0 0 0 0 1 0 0 0 1 0"/>
</filter>
<mask id="mask0">
  <g filter="url(#alpha)">
<rect x="0" y="0" width="32" height="32" style="fill:rgb(0%,0%,0%);fill-opacity:0.988235;stroke:none;"/>
  </g>
</mask>
<clipPath id="clip1">
  <rect x="0" y="0" width="32" height="32"/>
</clipPath>
<g id="surface5" clip-path="url(#clip1)">
<path style=" stroke:none;fill-rule:nonzero;fill:rgb(25.882354%,25.882354%,25.882354%);fill-opacity:1;" d="M 15.875 6.863281 C 15.144531 6.863281 14.554688 7.457031 14.554688 8.1875 L 14.554688 13.839844 L 9.675781 11.023438 C 9.039062 10.65625 8.234375 10.871094 7.867188 11.507812 C 7.5 12.140625 7.71875 12.949219 8.351562 13.316406 L 15.226562 17.285156 C 15.863281 17.652344 16.667969 17.433594 17.035156 16.800781 C 17.1875 16.535156 17.238281 16.238281 17.199219 15.957031 L 17.199219 8.1875 C 17.199219 7.457031 16.609375 6.863281 15.875 6.863281 Z M 15.875 6.863281 "/>
</g>
<mask id="mask1">
  <g filter="url(#alpha)">
<rect x="0" y="0" width="32" height="32" style="fill:rgb(0%,0%,0%);fill-opacity:0.988235;stroke:none;"/>
  </g>
</mask>
<clipPath id="clip2">
  <rect x="0" y="0" width="32" height="32"/>
</clipPath>
<g id="surface8" clip-path="url(#clip2)">
<path style=" stroke:none;fill-rule:nonzero;fill:rgb(25.882354%,25.882354%,25.882354%);fill-opacity:1;" d="M 15.875 13.480469 C 17.339844 13.480469 18.523438 14.664062 18.523438 16.125 C 18.523438 17.589844 17.339844 18.773438 15.875 18.773438 C 14.414062 18.773438 13.230469 17.589844 13.230469 16.125 C 13.230469 14.664062 14.414062 13.480469 15.875 13.480469 Z M 15.875 13.480469 "/>
</g>
</defs>
<g id="surface1">
<path style=" stroke:none;fill-rule:nonzero;fill:rgb(25.882354%,25.882354%,25.882354%);fill-opacity:1;" d="M 15.875 1.574219 C 7.8125 1.574219 1.324219 8.0625 1.324219 16.125 C 1.324219 24.1875 7.8125 30.679688 15.875 30.679688 C 17.015625 30.679688 18.121094 30.550781 19.183594 30.304688 L 19.183594 28.257812 C 18.132812 28.542969 17.023438 28.695312 15.875 28.695312 C 8.914062 28.695312 3.308594 23.089844 3.308594 16.125 C 3.308594 9.164062 8.914062 3.558594 15.875 3.558594 C 20.683594 3.558594 24.84375 6.226562 26.957031 10.171875 L 29.167969 10.171875 C 26.902344 5.09375 21.816406 1.574219 15.875 1.574219 Z M 15.875 1.574219 "/>
<use xlink:href="#surface5" mask="url(#mask0)"/>
<use xlink:href="#surface8" mask="url(#mask1)"/>
<path style=" stroke:none;fill-rule:evenodd;fill:rgb(14.901961%,65.098041%,60.392159%);fill-opacity:1;" d="M 23.816406 12.15625 C 23.082031 12.15625 22.492188 12.746094 22.492188 13.480469 L 22.492188 14.140625 L 27.785156 14.140625 L 27.785156 13.480469 C 27.785156 12.746094 27.195312 12.15625 26.460938 12.15625 Z M 22.492188 15.464844 L 22.492188 16.789062 L 27.785156 16.789062 L 27.785156 15.464844 Z M 22.492188 18.109375 L 22.492188 22.742188 L 21.167969 22.742188 C 20.078125 22.742188 19.457031 23.988281 20.109375 24.859375 L 24.078125 30.152344 C 24.609375 30.855469 25.667969 30.855469 26.195312 30.152344 L 30.164062 24.859375 C 30.820312 23.988281 30.195312 22.742188 29.105469 22.742188 L 27.785156 22.742188 L 27.785156 18.109375 Z M 22.492188 18.109375 "/>
</g>
</svg>

<svg xmlns="http://www.w3.org/2000/svg" xmlns:xlink="http://www.w3.org/1999/xlink" width="32pt" height="32pt" viewBox="0 0 32 32"><defs><filter id="a" filterUnits="objectBoundingBox" x="0%" y="0%" width="100%" height="100%"><feColorMatrix in="SourceGraphic" values="0 0 0 0 1 0 0 0 0 1 0 0 0 0 1 0 0 0 1 0"/></filter><mask id="e"><path fill-opacity=".988" d="M0 0h32v32H0z" filter="url(#a)"/></mask><clipPath id="b"><path d="M0 0h32v32H0z"/></clipPath><g id="d" clip-path="url(#b)"><path d="M15.875 6.863c-.73 0-1.32.594-1.32 1.324v5.653l-4.88-2.817a1.32 1.32 0 0 0-1.808.485 1.323 1.323 0 0 0 .485 1.808l6.875 3.97a1.322 1.322 0 0 0 1.972-1.329v-7.77c0-.73-.59-1.324-1.324-1.324zm0 0" fill="#424242"/></g><mask id="g"><path fill-opacity=".988" d="M0 0h32v32H0z" filter="url(#a)"/></mask><clipPath id="c"><path d="M0 0h32v32H0z"/></clipPath><g id="f" clip-path="url(#c)"><path d="M15.875 13.48a2.646 2.646 0 1 1-2.645 2.645 2.644 2.644 0 0 1 2.645-2.645zm0 0" fill="#424242"/></g></defs><path d="M15.875 1.574a14.517 14.517 0 0 0-14.55 14.551 14.52 14.52 0 0 0 14.55 14.555c1.14 0 2.246-.13 3.309-.375v-2.047c-1.051.285-2.16.437-3.309.437a12.54 12.54 0 0 1-12.566-12.57A12.54 12.54 0 0 1 15.875 3.559c4.809 0 8.969 2.668 11.082 6.613h2.211a14.516 14.516 0 0 0-13.293-8.598zm0 0" fill="#424242"/><use xlink:href="#d" mask="url(#e)"/><use xlink:href="#f" mask="url(#g)"/><path d="M23.816 12.156a1.32 1.32 0 0 0-1.324 1.324v.66h5.293v-.66a1.32 1.32 0 0 0-1.324-1.324zm-1.324 3.309v1.324h5.293v-1.324zm0 2.644v4.633h-1.324c-1.09 0-1.711 1.246-1.059 2.117l3.97 5.293c.53.703 1.589.703 2.116 0l3.97-5.293c.655-.87.03-2.117-1.06-2.117h-1.32V18.11zm0 0" fill-rule="evenodd" fill="#26a69a"/></svg>
